svg/emoji_u1f5e3.svg

<?xml version="1.0" encoding="UTF-8" standalone="no"?>
<svg
   width="128"
   height="128"
   version="1.1"
   id="svg416"
   sodipodi:docname="emoji_u1f5e3.svg"
   inkscape:version="1.2.2 (732a01da63, 2022-12-09)"
   xmlns:inkscape="http://www.inkscape.org/namespaces/inkscape"
   xmlns:sodipodi="http://sodipodi.sourceforge.net/DTD/sodipodi-0.dtd"
   xmlns="http://www.w3.org/2000/svg"
   xmlns:svg="http://www.w3.org/2000/svg">
  <defs
     id="defs420" />
  <sodipodi:namedview
     id="namedview418"
     pagecolor="#ffffff"
     bordercolor="#000000"
     borderopacity="0.25"
     inkscape:showpageshadow="2"
     inkscape:pageopacity="0.0"
     inkscape:pagecheckerboard="0"
     inkscape:deskcolor="#d1d1d1"
     showgrid="false"
     inkscape:zoom="2.9996795"
     inkscape:cx="62.339992"
     inkscape:cy="75.67475"
     inkscape:window-width="1366"
     inkscape:window-height="697"
     inkscape:window-x="-8"
     inkscape:window-y="-8"
     inkscape:window-maximized="1"
     inkscape:current-layer="svg416" />
  <path
     style="fill:#2f2f2f;fill-opacity:1"
     d="m 106.91016,80.779297 a 0.68,0.68 0 0 0 -0.56055,0.300781 l -0.57031,0.859375 c -0.19,0.28 -0.12914,0.66086 0.13086,0.880859 l 14.66015,12.289063 c 0.13,0.11 0.27969,0.160156 0.42969,0.160156 0.22,0 0.43055,-0.09883 0.56055,-0.298828 l 3.52929,-5.400391 c 0.23,-0.339999 0.0909,-0.810703 -0.28906,-0.970703 l -17.62109,-7.75 a 0.544,0.544 0 0 0 -0.26953,-0.07031 z"
     id="path1310" />
  <path
     style="fill:#2f2f2f;fill-opacity:1"
     d="m 125.43945,70.529297 c -0.06,0 -0.11945,0.01148 -0.18945,0.02148 l -18.41992,3.419922 c -0.48,0.09 -0.83008,0.510001 -0.83008,1 v 0.330078 c 0,0.53 0.40922,0.979532 0.94922,1.019531 l 18.48047,1.378907 h 0.0801 c 0.56,0 1.02953,-0.459298 1.01953,-1.029297 l -0.0586,-5.13086 a 1.03,1.03 0 0 0 -1.03125,-1.009765 z"
     id="path1308" />
  <path
     style="fill:#2f2f2f;fill-opacity:1"
     d="m 120.57031,55.910156 c -0.25,0 -0.5107,0.07977 -0.7207,0.259766 l -13.95899,11.699219 c -0.43999,0.369999 -0.53093,1.000703 -0.21093,1.470703 l 0.13086,0.199218 c 0.21,0.32 0.56968,0.5 0.92968,0.5 0.15,0 0.29922,-0.02984 0.44922,-0.08984 l 16.78125,-7.378907 c 0.63,-0.279999 0.86024,-1.060625 0.49024,-1.640624 L 121.5,56.410156 c -0.21,-0.329999 -0.56969,-0.5 -0.92969,-0.5 z"
     id="path396" />
  <path
     id="path410"
     style="stroke:none;fill:#2f2f2f;fill-opacity:1"
     d="M 48.259766 11.039062 C 44.789769 11.039062 41.110231 11.39047 37.240234 12.230469 C 31.99024 13.370468 19.890851 16.159229 11.130859 26.699219 C 9.9608605 28.109217 6.6698414 32.280084 4.3398438 38.580078 C 0.89984719 47.910069 1.7703131 55.910161 2.3203125 60.410156 C 2.850312 64.760152 4.0600069 74.740087 11 83.830078 C 18.709992 93.930068 31.099923 99.840079 32.169922 100.33008 C 32.169922 100.33008 44.310862 105.83915 46.630859 110.86914 C 47.580858 112.93914 47.25 114.75 47.25 114.75 C 47.07 115.75 46.629999 116.51 45.75 117.75 C 43.100003 121.48 41.94 121.76 42 122.5 C 42.2 124.91 54.719074 125.75977 66.039062 125.75977 C 66.789062 125.75977 67.520001 125.76 68.25 125.75 C 68.25 125.75 85.900079 125.54992 86.330078 122.16992 C 86.410078 121.51992 85.929843 119.85969 85.589844 118.92969 C 85.249844 118.00969 85.149218 117.94906 84.699219 116.78906 C 84.399219 116.01906 84.119922 115.07969 83.919922 113.92969 C 83.799922 113.25969 83.659922 112.44961 83.669922 111.34961 C 83.679922 109.91961 83.669846 106.84953 85.839844 104.76953 C 86.959843 103.69953 88.249844 103.26031 88.839844 103.07031 C 89.659843 102.74031 90.929767 102.27961 92.509766 101.84961 C 94.229764 101.38961 94.770626 101.39008 95.890625 101.08008 C 97.720623 100.58008 99.840626 99.970623 101.14062 98.390625 C 103.24062 95.840628 102.37922 91.480077 102.19922 90.580078 C 101.83922 88.75008 101.02031 86.80953 101.82031 85.519531 C 101.93031 85.339531 102.35977 84.71953 102.75977 83.769531 C 102.93977 83.349532 103.09922 82.970937 103.19922 82.460938 C 103.26922 82.080938 103.52062 80.819531 103.14062 80.269531 C 102.96063 80.019531 102.66094 79.919922 102.21094 79.919922 C 100.89094 79.919922 98.349605 80.829532 94.349609 81.519531 C 93.019611 81.749531 91.890546 81.900391 90.810547 81.900391 C 89.870548 81.900391 88.96953 81.789531 88.019531 81.519531 C 86.739533 81.159532 85.340625 80.77039 85.140625 79.900391 C 84.790625 78.300392 88.729614 75.979528 93.849609 73.019531 C 97.979605 70.629534 100.83063 69.359529 100.89062 67.269531 C 100.91062 66.529532 100.58055 65.909531 100.31055 65.519531 C 99.810547 64.649532 99.359609 64.499609 99.099609 63.849609 C 98.80961 63.13961 99.06961 62.439921 99.349609 61.669922 C 100.16961 59.399924 101.35008 59.260077 101.33008 58.080078 C 101.31008 56.960079 100.24094 56.069218 99.210938 55.199219 C 98.330938 54.469219 97.549531 54.089219 97.269531 53.949219 C 95.049533 52.81922 91.959609 49.809684 91.349609 46.429688 C 91.269609 45.959688 91.380859 46.310384 91.380859 40.150391 L 91.380859 38.580078 C 91.380859 38.580078 91.300547 37.909999 91.060547 37.25 C 89.490548 32.850004 82.919922 25.410156 82.919922 25.410156 C 79.849925 21.93016 79.619453 21.649219 79.439453 21.449219 C 79.399453 21.409219 79.369141 21.379141 79.369141 21.369141 L 79.179688 21.210938 C 80.169687 20.220938 81.279531 18.750546 81.019531 17.560547 C 80.729532 16.200548 78.310389 15.299453 76.900391 14.939453 C 72.700395 13.859454 66.739607 13.009296 64.599609 12.529297 C 62.639611 12.089297 58.890542 11.60039 54.310547 11.400391 C 52.360549 11.170391 50.349764 11.039063 48.259766 11.039062 z " />
</svg>

<svg width="128" height="128" xmlns="http://www.w3.org/2000/svg"><path d="M106.75 69.55c-.21 0-.4-.1-.52-.28l-.13-.2a.617.617 0 0 1 .12-.81l13.96-11.7c.14-.12.29-.15.4-.15.21 0 .41.1.52.28l2.96 4.52c.1.15.13.34.08.52-.05.17-.18.32-.34.39L107 69.5c-.08.03-.17.05-.25.05z" fill="#2f2f2f"/><path d="M120.57 56.91c.02 0 .07.01.1.05l2.96 4.52c.02.03.02.06.01.1-.01.04-.03.06-.07.08l-16.83 7.39c-.02 0-.07 0-.1-.05l-.13-.2a.136.136 0 0 1 .02-.16l13.96-11.7a.12.12 0 0 1 .08-.03m0-1c-.25 0-.51.08-.72.26l-13.96 11.7c-.44.37-.53 1-.21 1.47l.13.2c.21.32.57.5.93.5.15 0 .3-.03.45-.09l16.78-7.38c.63-.28.86-1.06.49-1.64l-2.96-4.52c-.21-.33-.57-.5-.93-.5z" fill="#464747"/><path d="M121 94.76c-.03 0-.07-.01-.11-.04l-14.66-12.29a.168.168 0 0 1-.03-.22l.57-.86a.16.16 0 0 1 .14-.08l17.69 7.76c.06.03.08.08.09.1.01.03.02.08-.02.14l-3.53 5.4c-.04.08-.11.09-.14.09z" fill="#2f2f2f"/><path d="M107.04 81.86l17 7.48-3.11 4.75-14.14-11.86.25-.37m-.13-1.08a.68.68 0 0 0-.56.3l-.57.86c-.19.28-.13.66.13.88l14.66 12.29c.13.11.28.16.43.16.22 0 .43-.1.56-.3l3.53-5.4c.23-.34.09-.81-.29-.97l-17.62-7.75a.544.544 0 0 0-.27-.07z" fill="#464747"/><g><path d="M106.98 75.82a.523.523 0 0 1-.48-.52v-.33c0-.25.18-.47.43-.51l18.42-3.42h.02c.37 0 .59.23.6.51l.06 5.13a.514.514 0 0 1-.52.52l-18.53-1.38z" fill="#2f2f2f"/><path d="M125.44 71.53l.02.02.04 5.15-18.5-1.4.02-.35 18.42-3.42m0-1c-.06 0-.12.01-.19.02l-18.42 3.42c-.48.09-.83.51-.83 1v.33c0 .53.41.98.95 1.02l18.48 1.38h.08c.56 0 1.03-.46 1.02-1.03l-.06-5.13a1.03 1.03 0 0 0-1.03-1.01z" fill="#464747"/></g><g><path d="M66.04 124.26c-13.32 0-20.15-1.06-22.15-1.93.63-.65 1.66-1.72 3.08-3.71.98-1.38 1.52-2.31 1.75-3.6.04-.23.38-2.34-.74-4.77-2.48-5.38-13.91-10.69-15.2-11.28-1.31-.61-13.16-6.3-20.59-16.04C5.5 74.16 4.31 64.4 3.8 60.23c-.5-4.18-1.44-11.94 1.95-21.13 2.07-5.6 4.98-9.57 6.54-11.44C20.89 17.3 33 14.68 37.55 13.7c3.55-.77 7.15-1.16 10.7-1.16 1.95 0 3.91.12 5.85.35l.11.01c4.71.21 8.34.72 10.03 1.09.79.18 2.07.4 3.54.66 2.7.47 6.06 1.06 8.71 1.74 1.75.45 2.9 1.17 3.03 1.5.04.21-.25 1.06-1.45 2.26l-1.19 1.19 1.43 1.13c.05.06.11.13.26.29.35.4 1.13 1.3 3.19 3.63.06.07 6.39 7.27 7.85 11.35.13.37.21.77.23.93v1.45c0 3.42-.04 4.81-.05 5.47-.01.55-.02.71.04 1.07.75 4.18 4.42 7.43 6.71 8.6.36.18.96.49 1.66 1.06.63.53 1.58 1.32 1.59 1.75-.02.04-.18.22-.29.36-.43.51-1.09 1.28-1.6 2.7-.33.92-.73 2.02-.23 3.25.24.59.56.94.82 1.23.18.2.32.35.48.63l.07.11c.22.32.32.6.32.85-.03.95-2.15 2.15-4.6 3.53-.54.3-1.1.62-1.69.96-6.76 3.91-9.99 5.91-9.42 8.5.38 1.75 2.35 2.3 3.93 2.75 1.04.29 2.09.43 3.2.43 1.05 0 2.19-.12 3.8-.4 1.96-.34 3.57-.73 4.87-1.04.95-.23 1.8-.44 2.37-.51-.01.18-.05.41-.11.72-.07.35-.18.62-.35 1.02-.3.72-.62 1.21-.77 1.44l-.06.1c-.95 1.54-.5 3.35-.1 4.95.1.4.2.8.28 1.19.58 2.96.31 5.29-.75 6.57-1.02 1.24-2.95 1.77-4.49 2.2-.47.13-.83.2-1.23.28-.54.11-1.16.23-2.13.49-1.31.35-2.6.78-3.83 1.27-.58.19-2.12.7-3.48 2.01-2.59 2.49-2.62 6.07-2.63 7.6-.01 1.3.15 2.23.27 2.91.2 1.13.48 2.16.86 3.14.24.61.38.94.51 1.23.11.25.21.47.37.89.35.95.62 2.02.66 2.45-1.13 1.18-8.77 2.27-16.61 2.36-.72.02-1.45.02-2.19.02z" fill="#2f2f2f"/><path d="M48.26 14.04c1.89 0 3.8.11 5.68.34l.11.01h.11c4.61.2 8.14.7 9.77 1.06.83.18 2.05.4 3.61.67 2.68.47 6 1.05 8.6 1.72.61.16 1.14.35 1.53.53-.15.2-.36.44-.63.72l-2.37 2.39 2.64 2.09c.04.04.09.1.17.2.35.41 1.14 1.31 3.19 3.63 2.39 2.71 6.56 8.05 7.56 10.86.07.19.12.41.15.56v1.32c0 3.4-.04 4.77-.05 5.43-.02.6-.02.87.07 1.38.76 4.22 4.35 8.06 7.51 9.67l.07.03c.24.12.75.38 1.31.84.19.16.43.36.65.55-.44.57-.97 1.4-1.41 2.63-.36 1-.91 2.52-.2 4.28.34.84.82 1.37 1.11 1.68.15.17.21.23.28.36l.06.11c-.63.59-2.32 1.55-3.71 2.33-.54.3-1.11.63-1.71.97-6.84 3.96-10.97 6.34-10.14 10.12.58 2.63 3.23 3.37 4.99 3.87 1.18.33 2.35.49 3.6.49 1.44 0 2.86-.21 4.06-.42 1.88-.33 3.43-.69 4.7-1-.09.15-.16.26-.21.34l-.08.12c-1.28 2.08-.7 4.4-.28 6.1.1.4.19.77.26 1.13.7 3.59-.16 4.98-.44 5.32-.72.87-2.39 1.33-3.73 1.7-.4.11-.7.17-1.12.25-.54.11-1.21.24-2.24.51-1.33.36-2.65.79-3.92 1.29-.79.27-2.5.87-4.05 2.36-3.05 2.93-3.07 6.95-3.09 8.67v.06c-.01 1.4.17 2.44.3 3.13.22 1.23.52 2.34.94 3.42.25.65.42 1.02.55 1.31.11.25.19.42.32.78.14.39.27.79.36 1.14-2.36.85-8.75 1.59-14.91 1.66-.72.01-1.45.01-2.19.01-9.91 0-16.21-.6-19.4-1.23.46-.55.98-1.22 1.56-2.04.88-1.24 1.7-2.49 2.01-4.21.05-.28.46-2.82-.85-5.67-2.66-5.74-13.76-11.01-15.93-12-.52-.24-12.72-5.99-20.05-15.6-6.45-8.45-7.6-17.92-8.09-21.97C4.8 56 3.89 48.47 7.15 39.62c1.99-5.39 4.79-9.21 6.28-11 8.28-9.96 20.02-12.5 24.44-13.45a48.9 48.9 0 0 1 10.39-1.13m0-3c-3.47 0-7.15.35-11.02 1.19-5.25 1.14-17.35 3.93-26.11 14.47-1.17 1.41-4.46 5.58-6.79 11.88C.9 47.91 1.77 55.91 2.32 60.41c.53 4.35 1.74 14.33 8.68 23.42 7.71 10.1 20.1 16.01 21.17 16.5 0 0 12.14 5.51 14.46 10.54.95 2.07.62 3.88.62 3.88-.18 1-.62 1.76-1.5 3-2.65 3.73-3.81 4.01-3.75 4.75.2 2.41 12.72 3.26 24.04 3.26.75 0 1.48 0 2.21-.01 0 0 17.65-.2 18.08-3.58.08-.65-.4-2.31-.74-3.24-.34-.92-.44-.98-.89-2.14-.3-.77-.58-1.71-.78-2.86-.12-.67-.26-1.48-.25-2.58.01-1.43 0-4.5 2.17-6.58 1.12-1.07 2.41-1.51 3-1.7.82-.33 2.09-.79 3.67-1.22 1.72-.46 2.26-.46 3.38-.77 1.83-.5 3.95-1.11 5.25-2.69 2.1-2.55 1.24-6.91 1.06-7.81-.36-1.83-1.18-3.77-.38-5.06.11-.18.54-.8.94-1.75.18-.42.34-.8.44-1.31.07-.38.32-1.64-.06-2.19-.18-.25-.48-.35-.93-.35-1.32 0-3.86.91-7.86 1.6-1.33.23-2.46.38-3.54.38-.94 0-1.84-.11-2.79-.38-1.28-.36-2.68-.75-2.88-1.62-.35-1.6 3.59-3.92 8.71-6.88 4.13-2.39 6.98-3.66 7.04-5.75.02-.74-.31-1.36-.58-1.75-.5-.87-.95-1.02-1.21-1.67-.29-.71-.03-1.41.25-2.18.82-2.27 2-2.41 1.98-3.59-.02-1.12-1.09-2.01-2.12-2.88-.88-.73-1.66-1.11-1.94-1.25-2.22-1.13-5.31-4.14-5.92-7.52-.08-.47.03-.12.03-6.28v-1.57s-.08-.67-.32-1.33c-1.57-4.4-8.14-11.84-8.14-11.84-3.07-3.48-3.3-3.76-3.48-3.96-.04-.04-.07-.07-.07-.08l-.19-.16c.99-.99 2.1-2.46 1.84-3.65-.29-1.36-2.71-2.26-4.12-2.62-4.2-1.08-10.16-1.93-12.3-2.41-1.96-.44-5.71-.93-10.29-1.13-1.95-.23-3.96-.36-6.05-.36z" fill="#464747"/></g></svg>
